X:520
T: Fall of Snow
S: B.Breathnach:"Ceol Rince na hEireann" IV/11 (gan ainm)
Z: B.Black
N: No repeats
L: 1/8
M: 6/8
R: jig
K: G
D|G3 BAG|dBG BAG|DGG DGG|Bc/d/B AdB|
G3 BAG|dBG BAG|DGG ABc|dc/B/A G2 ||
f|g2f edc|Bed cBA|DGG DGG|Bd/c/B A2f|
g2f edc|Bed cBA|DGG ABc|dc/B/A G2 ||
B|d2g B2d|G2B D2G|DGG DGG|Bd/c/B ABc|
d2g B2d|G2B D2G|DGG ABc|dc/B/A G2 ||
